icon-themes/sifr_svg/cmd/sc_fontworkshapetype.fontwork-fade-down.svg

<svg viewBox="0 0 16 16" xmlns="http://www.w3.org/2000/svg"><g fill="#555753"><path d="m1 1 3 14h8l3-14zm2.4746094 2h9.0507816l-2.142579 10h-4.7656245z"/><path d="m3.4746094 3 2.1425781 10h4.7656245l2.142579-10z" opacity=".35"/></g></svg>

<svg xmlns="http://www.w3.org/2000/svg" viewBox="0 0 16 16">
  <path
     style="fill:#555753"
     d="M 1 1 L 4 15 L 12 15 L 15 1 L 1 1 z M 3.4746094 3 L 12.525391 3 L 10.382812 13 L 5.6171875 13 L 3.4746094 3 z "
     />
  <path
     style="opacity:0.35;fill:#555753"
     d="M 3.4746094 3 L 5.6171875 13 L 10.382812 13 L 12.525391 3 L 3.4746094 3 z "
     />
</svg>
